X: 1
T: Mutual Love
T: the Flight
O: England 1777
R: jig
Z: 2012 John Chambers <jc:trillian.mit.edu>
S: printed MS of unknown origin
M: 6/8
L: 1/8
K: D
A |\
"D"dfe dfe | "D"d2A "(A7)"A2G | "D"FAd "G"Bcd | "Em"egf "A7"e2A |\
"D"dfe dfe | "D"d2A "(A7)"A2G | "D"FAd "A7"Aec | "D"d3 d2 :|
|: f/g/ |\
"D"a2f dfa | "Em"b2g "(A7)"efg | "D"a2f d2f | "A7"ecA A2a |\
"D"a2f dfa | "Em"b2g "(A7)"efg | "D"afd "A7"Aec | "D"d3 d2 :|
